src/assets/filled/Save2.svg

<svg width="24" height="24" viewBox="0 0 24 24"  xmlns="http://www.w3.org/2000/svg">
<path d="M12.89 5.87988H5.11C3.4 5.87988 2 7.27988 2 8.98988V20.3499C2 21.7999 3.04 22.4199 4.31 21.7099L8.24 19.5199C8.66 19.2899 9.34 19.2899 9.75 19.5199L13.68 21.7099C14.96 22.4099 16 21.7999 16 20.3499V8.98988C16 7.27988 14.6 5.87988 12.89 5.87988Z" />
<path d="M22.0001 5.11V16.47C22.0001 17.92 20.9601 18.53 19.6901 17.83L17.7601 16.75C17.6001 16.66 17.5001 16.49 17.5001 16.31V8.99C17.5001 6.45 15.4301 4.38 12.8901 4.38H8.82008C8.45008 4.38 8.19008 3.99 8.36008 3.67C8.88008 2.68 9.92008 2 11.1101 2H18.8901C20.6001 2 22.0001 3.4 22.0001 5.11Z" />
</svg>

<?xml version="1.0" encoding="UTF-8"?>
<svg width="24" height="24" viewBox="0 0 24 24" xmlns="http://www.w3.org/2000/svg">
 <path d="m12.89 5.8799h-7.78c-1.71 0-3.11 1.4-3.11 3.11v11.36c0 1.45 1.04 2.07 2.31 1.36l3.93-2.19c0.42-0.23 1.1-0.23 1.51 0l3.93 2.19c1.28 0.7 2.32 0.09 2.32-1.36v-11.36c0-1.71-1.4-3.11-3.11-3.11z"/>
 <path d="m22 5.11v11.36c0 1.45-1.04 2.06-2.31 1.36l-1.93-1.08c-0.16-0.09-0.26-0.26-0.26-0.44v-7.32c0-2.54-2.07-4.61-4.61-4.61h-4.07c-0.37 0-0.63-0.39-0.46-0.71 0.52-0.99 1.56-1.67 2.75-1.67h7.78c1.71 0 3.11 1.4 3.11 3.11z"/>
</svg>
